dist/img/icons/clients/smile.svg

<svg width="28" height="29" viewBox="0 0 28 29" fill="none" xmlns="http://www.w3.org/2000/svg">
<g clip-path="url(#clip0)">
<path d="M19.8842 17.2065C19.6334 16.9819 19.2481 17.0038 19.0247 17.254C17.755 18.6729 15.924 19.4861 13.9999 19.4861C12.0765 19.4861 10.2449 18.6729 8.97514 17.254C8.75053 17.0038 8.36645 16.9819 8.11566 17.2065C7.86488 17.4305 7.84419 17.8152 8.06819 18.066C9.56862 19.7423 11.7307 20.7035 13.9999 20.7035C16.2698 20.7035 18.4319 19.7417 19.9317 18.066C20.1557 17.8152 20.1344 17.4305 19.8842 17.2065Z" fill="#236EFF"/>
<path d="M14 0.0078125C6.28052 0.0078125 0 6.28833 0 14.0078C0 21.7273 6.28052 28.0078 14 28.0078C21.7195 28.0078 28 21.7273 28 14.0078C28 6.28833 21.7195 0.0078125 14 0.0078125ZM14 26.7904C6.9513 26.7904 1.21739 21.0565 1.21739 14.0078C1.21739 6.95912 6.9513 1.2252 14 1.2252C21.0487 1.2252 26.7826 6.95912 26.7826 14.0078C26.7826 21.0565 21.0487 26.7904 14 26.7904Z" fill="#236EFF"/>
<path d="M18.8697 9.74689C17.1915 9.74689 15.8262 11.1122 15.8262 12.7904C15.8262 13.1264 16.0989 13.3991 16.4349 13.3991C16.7709 13.3991 17.0436 13.1264 17.0436 12.7904C17.0436 11.7836 17.8629 10.9643 18.8697 10.9643C19.8764 10.9643 20.6957 11.7836 20.6957 12.7904C20.6957 13.1264 20.9684 13.3991 21.3044 13.3991C21.6404 13.3991 21.9131 13.1264 21.9131 12.7904C21.9131 11.1122 20.5478 9.74689 18.8697 9.74689Z" fill="#236EFF"/>
<path d="M10.9566 12.7904C10.9566 13.1264 11.2293 13.3991 11.5653 13.3991C11.9013 13.3991 12.174 13.1264 12.174 12.7904C12.174 11.1122 10.8087 9.74689 9.13051 9.74689C7.45234 9.74689 6.08704 11.1122 6.08704 12.7904C6.08704 13.1264 6.35973 13.3991 6.69573 13.3991C7.03173 13.3991 7.30443 13.1264 7.30443 12.7904C7.30443 11.7836 8.12373 10.9643 9.13051 10.9643C10.1373 10.9643 10.9566 11.7836 10.9566 12.7904Z" fill="#236EFF"/>
</g>
<defs>
<clipPath id="clip0">
<rect width="28" height="28" fill="white" transform="translate(0 0.0078125)"/>
</clipPath>
</defs>
</svg>

<svg width="28" height="29" fill="none" xmlns="http://www.w3.org/2000/svg"><g clip-path="url(#clip0)" fill="#236EFF"><path d="M19.884 17.206a.609.609 0 00-.86.048A6.743 6.743 0 0114 19.486a6.744 6.744 0 01-5.025-2.232.609.609 0 10-.907.812A7.963 7.963 0 0014 20.703c2.27 0 4.432-.961 5.932-2.637a.61.61 0 00-.048-.86z"/><path d="M14 .008c-7.72 0-14 6.28-14 14s6.28 14 14 14 14-6.28 14-14-6.28-14-14-14zm0 26.782c-7.049 0-12.783-5.733-12.783-12.782S6.951 1.225 14 1.225c7.049 0 12.783 5.734 12.783 12.783 0 7.049-5.734 12.782-12.783 12.782z"/><path d="M18.87 9.747a3.047 3.047 0 00-3.044 3.043.609.609 0 001.218 0c0-1.006.819-1.826 1.826-1.826a1.83 1.83 0 011.826 1.826.609.609 0 001.217 0 3.047 3.047 0 00-3.043-3.043zm-7.913 3.043a.609.609 0 001.217 0 3.047 3.047 0 00-3.043-3.043 3.047 3.047 0 00-3.044 3.043.609.609 0 001.217 0 1.83 1.83 0 011.827-1.826 1.83 1.83 0 011.826 1.826z"/></g><defs><clipPath id="clip0"><path fill="#fff" transform="translate(0 .008)" d="M0 0h28v28H0z"/></clipPath></defs></svg>
